X:0
T:Bessie's Haggies
G:song or reel
S:NLS MS 21717 p52
M:C|
L:1/8
Q:1/2=100
K:D
D2FE D2A2|BAGF      ~E3F|D2FE D2A2|BcdA F2A2 |
B2d2 F2A2|BAGF      ~E3F|D2F2 A2de|f2D2 F2A2:|
D2A2 d2cB|cd (c/d/e) E3F|D2A2 d2de|c2BA d3e  |
fdec dBcA|BFGA      ~E3F|DEFG ABcA|defD F2A2:|

and this hexatonic Border tune does the same:

